-----BEGIN PGP PUBLIC KEY BLOCK-----
Comment: GPGTools - https://gpgtools.org

mDMEYgLeERYJKwYBBAHaRw8BAQdAzqc9/paVkFkiZN8+ti+4yLvd8AZms0e3HjE/
y0IJ0nS0JkJvZ2RhbiBNYW5vbGUgPGJvZ2Rhbi5tYW5vbGVAZnJhZ28ucm8+iJYE
ExYKAD4WIQRQgx6F9I96vl2iUVHgTvESyisHIQUCYgLfxgIbAwUJCWYBgAULCQgH
AwUVCgkICwUWAgMBAAIeBQIXgAAKCRDgTvESyisHIYVBAP9q4OplYWcT8NY2HrHW
FjMxPntf6TSo5ekC0WhnCjfxWAEAiOn0AEmTFpFqNxlYEYDIk6D7NA+CoPORS1Sm
o5IY/Qi0IUJvZ2RhbiBNYW5vbGUgPG1hbm9sZWJAZ21haWwuY29tPoiWBBMWCgA+
FiEEUIMehfSPer5dolFR4E7xEsorByEFAmIC3hECGwMFCQlmAYAFCwkIBwMFFQoJ
CAsFFgIDAQACHgUCF4AACgkQ4E7xEsorByH0zQEAk8IAm8dN58OKfbIJQX/o0B9m
zXwaxOPhQ2+Ly4x9hZMBAMtaVSu3kyXvFTHPQm1yr4QARqRlUZ16yVkyS8bg9SgG
0dXq1egBEAABAQAAAAAAAAAAAAAAAP/Y/+AAEEpGSUYAAQEAAAEAAQAA/9sAhAAE
BAQEBAQEBAQEBgYFBgYIBwcHBwgMCQkJCQkMEwwODAwODBMRFBAPEBQRHhcVFRce
Ih0bHSIqJSUqNDI0RERcAQQEBAQEBAQEBAQGBgUGBggHBwcHCAwJCQkJCQwTDA4M
DA4MExEUEA8QFBEeFxUVFx4iHRsdIiolJSo0MjRERFz/wgARCADmAOYDASIAAhEB
AxEB/8QAHQABAAEFAQEBAAAAAAAAAAAAAAgDBAUGBwECCf/aAAgBAQAAAAD8/wAA
AAAAAAAAAAenvyAAAHtbJ5m7sMLj6fgAAHuS6r3rol9h+XcC55a+AAB7kO9SryeP
2/RNj0iI/KLUAAK/WJoWsNclLuDm9zE0KGmj0wAD62yY3YYMca6FLyDmIk9LKMcW
cL4AB7k5JS30/wDPfXMzuvPrPo/6H4qGPE7UACv1ia3ROLwGxF7kcVQ2/wDRjbOK
wu0imAH3tUyO/fES4n2u/Sjh1g8rObvNjFaLWG8AGTkpLjJ8FhjrDqcx4F6x99Em
71DTYY8UtAC46xNTeeEw41OnU6pJeH+peVujzX6VxuGGjfAH1tkxu58Ih5q9J93l
xaWnntboU1+gxfixhvA9yEl5ZcxhBq1OpVoePPutSp1ulTovIYcUtQ++hTn2aBXK
KNfe/jRKZcdM1bWKd1IuZ3F4Va14K/f5t8Tg/i6/SJnR7jbbl/MrPw51L42n9Bsj
BLlvwLmTkwYkRZ86TNjpnG4M6zTrdEntuPCYaapdzk69BfjNIXEjplxKjF0ObXTK
1lwmNWu7zKbqta04ZDHBzc6xBXkdMVOszm0uOUqum1XlLFWWTyX2WvC+Ay71yDuk
/I9zsuZFVsnUB56C3x+MiZHDHAq7vKzumbqAegoavHKMuufAPau0dl6zslUAeW+o
cc5JhKYB93GQvPsPAfNhj6PyAB6AB4AAAAAAAAAAAAAAe/Xy988+vkAAAztRa7fp
d7sv/8QAGgEBAAMBAQEAAAAAAAAAAAAAAAQFBgMBAv/aAAgBAhAAAAAAAA6WnSvh
gDvquEawqqMB7q/mwRfnPQgLrtKqb+rj3GS+Qkaeis+dvlLuD3zw91lbYZe6tsda
WHaghFtYd8zpst8aCF0mycl41HOBcca+t1PKrt/cvyaX6n5SLoJFFF00zllOaZpc
zFB93XbNiwvfQIVB8g98D3wAA9ee+AD779OEr//EABoBAQADAQEBAAAAAAAAAAAA
AAADBAUBAgb/2gAIAQMQAAAAAAAOVo7UgA8/PQSxbt0Aw6d3OuQfRSgUs73rUpqM
W+Dz87oepMb6PF92tEMPxZ1qlDarZMH0MpVwruzn6HaknnFl3jHq7uZU3JsJr5db
6PrJz7Gjax+X7eLD4+k6i+c17/XOd8YV3VEGTH051oX+gAAAAAA8w17NH//EACwQ
AAICAgIBAQgCAwEBAAAAAAIDAQQFBgARBxIQExQWFyAhMTBAFTJBYDP/2gAIAQEA
AQgA/wDDdc6nnU86n+x1wEkf6r4t7v8AVOr22ddfJ93rvj9btK77fj3Kn8kuRn8z
/UiO+U6LbJiAa1otm/IkeB8ZgABLKuh1FDHc6TT9PL2g1GwXp2HxnHoIlbDqFugw
+PQaimJmP6dOsT2CMaNpJ2mpYzAa1VoIGSv7BjsUBQzFbvjck/3CXXVrRLZfv+IX
Zmuda7Qyyuw2nTkXlsINv1JuOc0oemVFMT/RSuTOIjStcm89JFq2voooWU7ptyMB
VLraN7yWUtOKfHmYtf5uuPM3dYGCYY5vNW4yFg50jyRfx1pan4DMV87RWyN71ZVq
q842bClQsmMEMxP9AYmZ5gMSy68BHx7qnw9dDDybwxtBrC8lbMzJ5RoCxsmXfNAc
KszUks5kkTrxxGcP1W3zFZ5KZBR4g2wlNGi2wgL9OeeSNRKYJqspSOs8wKY6/mjl
GsT2iMeONRlhA08Pjgp1lgPkW4VXCXJ5nXk62455jL7KLVtVZ3vJ2KnwxW3S0pLg
z1PNFuHWytUhwTvf0USWz4UL9Y45vusTTtuMXqlZFE/yqCTKI5pGuHetpktQwCqN
YOoGAGOvK1iAwdqOZMvU859iEmyYgSxtkA9cuCQnqY/7zVWQvIVZnVGweOqzxyhY
EjO+auq2pxxsuFOjZbEmMiU9/wAcR3PMDim3HgI+PtV+FWhh1kilcDFuyCFkU+YN
tQ5TKCbTPWyZ5HNKphcytVR5rU6S8FLBzChVZcEcxtn3DQLni/ba9+lXrylosHuM
jTGyoxnyPqJelzgydFldxiUx1/HRqk9ojHjrUve+5aeIx66aAGLFgErki8ieQk4x
T0JzmafkrDHNKZng88dKmc3V6zy/Vr7IjYQmLtnhR1wCkC7jT9qs4O6lwaVulfNV
lzwSBoRPNnwq71VsTvusFTsGY2Eysij+JK5MoiNI107tkJnUcCuhTTx7111yReRP
IacYk0V87nrOTtue4y9Uz7A/5zx9dq0cqp9jIbxiXYwkRsZrbftGsvYpkhPcaft9
zCWwNelbpVzNNJcL0PXMRvurrtpMo2bDHStuGTHqev4BjueuYDEsu2lBHj3VIqqA
ziV00dH5F8jIx1d9avnc6/J2Dc0zkpmfaP74q0S+upyTZjqWvlk/mfZ+uLZIT3Gq
bbZwz1mvSd4p5tCYi6gLiCjnkbUSknuDJUjrNMSn7uuUq0uYMR451KGsQ08XRVQr
xEeRd1HDVmrVns3YyVljXEUlPsEJKfwSpjkx+ed+2InvnuS674QyP74tkhMTGl7Z
aw19DA1DY1ZuitkbHhlZCs3vfNZ+Ca1gvXIHMT9oR3PNQxc27S45pWFCrWSXNhyK
sZSa2fIOyNy2VsFBnJTMzxa5OYiNf1S7lmD7rZcEWIfCSP8Ac/YmOziOa/qbc1UY
aszgrONYa3GEjPU8rtlRjPPEu2zTtRTdVaFyoJ88j6+Dqr2RnaU1bLAmf39qY7YP
PGVH3zgPmJTCaY9eYM5NPHSkci+XPMp/c8WomTERqGnW83ZVC9Z0ith6IjHmLDlX
vi0XD6DmPbHKS5No88QYLvGQ1m/eO1ZOm91fYNftYqyaXEEjPUxzXb5U7iGDoOU/
yGGqHzbasPxzu96qQi+2OHH5+2t/9B54qGO18RPVOOebbhy9auPnthTK1ycxHNO0
+xnLQAOmaZUwtNAxCRhfpjyXqkZikZBncO6hbckyCRnnU8WojmIjTdZflsglY6dg
gxWNQgbFYXLkC8h+PK2Vrk9OfwNjF2mpaQyM/miUi0Z54btmzE1xnPdFQbPPIwxF
8+N/3n7UT0Y88W2wFihmocMo/jzbTZFhTeGg5ZMRp2nW81cSI6Zp1fC1QCFLhYxE
ctVQeJCW7+M0ZaHPr5jxlmqRlEBo+YI/TGv+KsvccqX6bolbBqHpKhWMDHLFYXBM
T5B8fKyynOTnsBaxlhqn00lDRjnhumasQgy2R0Lx7u/INmGZBnTJ/P2hPRRPNDyv
wtpcTrWRC3TV15K1E85SmVUPF+SsX4Wen6XWwiFRClQuI69kx3w0gffb8NVd3641
uhBRMIxqExHoFcD+I9tiuDhmC37x0jLoa1FPxjk4yELLUcIOFxddE79mF1aDx5tN
74m44uFPc/bHMRdOq4Tjx3tsFFdR1nIupHteMqrL1CCxCPv6j72oA+4mcXWE/XGU
vqopPvyLtcvhyQu2CcySL7gOYmJjXM+zH2FlzSt+Q4ABmPzdW0sSEHgX69Y89cc9
cc9cc9cc9cc9cc9Uc9Ucg45JjEc9Q89cRxlpQR+cvsVSmsind9/WcuWnL5U7jDIp
n744DJDqYxGfsUTiQwHkx1cABmO8opKB9S/JNTn1Hqc+o1Tn1Gqc+o1Tn1Gqc+o1
Tn1Gqc+o1Tn1Hqc+o1Tn1Hqcb5KqxE8y3lJYgfo2DyJYuSQjkMq62wjIjmZ7/igp
74uyYT+FZayv9DsF2I658x3euufMV3nzFd58xXefMV3nzFd58xXefMV3nzFe58xX
efMV3hZ+4UfluSezvs3mf777/m7nnfO+d8753zvnfO+d8753PO//ADERJT1BAYT6
S6n2ekp517Oi/ra5AlmaIlnfyeMOU0saKFMt5CkivFZ1Wo7GY2t8E+xV6u/DKXiC
XfbUs5/FVsdWUpX/xAAvEAEAAgIBAQcCBQQDAAAAAAABAAIDESESBBAgMDFBkRNR
IjJAYXEjU2CxUpKh/9oACAEBAAk/AP8AI6LMNmYmYrEq/p6rMLqYD0nZz4mGnxMN
ef2mA3MDoh+kPWV4/iVOP2mSlSp6bJkG38xADcyG+rXLLVRPZlT8v2leN/pManUS
mkrzLlbFXRO0WKNnQTKovMdW+lM1uMtvf95nbYpYeqYudSiG39FXcx86I66a7mVa
U2Rjo3Mhzin9y3++7M9O+Ib3WYfuyukf0B7yj6j6Q1ojp6Y8tnuUtV3L/h1qe73P
rcI73jP9Su+GV4/jzyY1JiB4hGffu9WY7h90e/8AuEdn06w41MPtKIdXnV3tJj9o
R0BMm1dPfXqFmGomOHpex8Pc8ltzKddahpjviV3MZ6yqafMGUd7ldaCOgl6uTSS+
7WXvIc/Sntkv/vvv+AsbJevWVNm4nMr6ko658smHdRJjB1LABO0H1XZwzLazZXl8
FypU952mitNa6iJ02vZPBmsU2bNzPRya5Nx3smEeH2lEB8qvCyh6EdATLvL+XiXb
K+F1LPz4WZLFB5qMyf1OnkZzsmP7srrT5B6sp7jDWqzIGRJkVtbfmsy6x7NkuLo3
qU2tWUddT5FFOqYwdEuV1WZW2MtoN95MFmh6vTK6enxUWwvtMNqo+54M70WTQsd9
VZilfRfGH5pU4Alkb7nO3vxpjbG3UpXr6eXUrwnip+Z9yUqZA36TGiL3umtyO3oI
e0PH7Wn/ABjwL347GPZtmE69G1hxqU3etXUojSycw7veUWoioSmkOZUdkxf1TbxM
aNXvfQn28h56o73Ug62w3ML9PfLMNetDbqHcepMIZHbOyWsD6k7Bk3OytMcwhfXL
qHcbGYD6mvYmFolmHMr6kfaP38dtfij61IfjruU1Tq9dTGdfTy6h4CY62/kmGn/W
UDX2PD7yhXL/ABMfBblBhprWMffx21pmUmkSYqj+xDzq7GYq9X31EEGZI+RdASZu
dEyHMe7U1NTU1NTU1NRjElplBJl2yy7fJZaW/wDZY+ZevzL1+ZesvWXrL1l6y9Ze
svWXrL1+ZkPmXPmWllV8tl2ZWZ7fMzW+ZntM9pntM9pntM9pntM9pntO0W+Znt8z
I7lv8z5ZVE9RNJ3nefpgTrX4qsd2v2DBay+qp6sz9pMmShcMWOjUH97WJlvfFlLJ
9SpWw1dPosydrtkObmPHi+lZsb56uWX2WuFWxr8xs3MprFhyZbOPnZSvVo3rmVqu
N7MF+kFMuAyO5//EAC8RAAICAgECBAUDBAMAAAAAAAECAwQAEQUSIRMiMVEQFCBB
YSMwMiQlQHEzNEL/2gAIAQIBAT8A/wARInkOlUnI+HsyAHWv94eDsAbGTUp4T50O
Ea/arQtPIEUdziJW4yIdYDSkZJa5GZGkijITWV7HIzMejZ1kd5X3Bcj0T22RnJcd
4P6sXdD+yoLEAZx1dKcBsy9m12GVUF2d7M//ABJlPkBZsPBGoEYBAGRM1SvalVdE
NnVHytdnChZ0G+331lGYWI3qT+o7DeXar1pmUjtvt+xxVLxpPEceVc5a71t4ER8q
5BuLh5W+7HOLeZLSmIbOcrLcNYhogqn11nBORZKg9iCCMsSNWvOynXmyxGnI1BKu
vEUY6lWKn1H1VoWnlVFG95bkj4+qIE/my98p05bs/p29Sc5SxHBAlKFuw9c4D/sE
+yk5JI89G319+ljlKwa1lJPznJUxaT5yv3BGzr7Zxls15BHJ/EnRzlqSj+oiHlbv
9IBY6GcfXSnXazKPMR23ixzcnZJG9b9T9hlm1Dx0Py1Ygya0xx2aRizHZOcNcgqu
4m/9AjeS36EdeZImJLjG7sSM47kGrN0Odxn1By7QSVBcqHanuQPtlCdbMJqz+uu2
XqxrTMp+jia3j2AWG1HfORnM0y1IvT00MtSpxlUQxaEzr5jiiSxJruWJyDgl+XZ5
mHX07AyVeiRl9jr4cTxkdxHZz0hcv8dJSc9tofQjOMvmvII3O427EZehNSZLMB/T
buMuol2ks6r5wO+EaPx4UBYpnHqAc45PGvvIe/SScvGS1ccDZ8xAyCCDiofHn0Zi
PKMo8k0ts+K/lbtnJ0ZIZ2YKSjdwRkcUkjBUUknF/tvGlWOpHylfito1W33B7A5f
4+SnJsDcZ7qcRvmeJPV6xnsc4slqkyN6aycalcD3+PBuCJYfcZTIq8g6SeVW2Mkj
qccZLDOryMdrlu3JalZnP3xWKkEHRGVuYKoIrCCRfzh5WnEC0FdQ3vlu7Lacl27Y
rFSCDlG/FZj+VtkEegJ+2WUhpUHiRwxc9soqYKMsrdtjJW65Gb3Pxp2TXmRx75ar
Lej+Yrnz69Bk6zglZN9vfOlvbNH2OaPsc0fY5o+xzR9jiB9+UHKVOeyQ0pIQe+cr
cRUFWH0Ht9NPkJqrDpO1xeQo2QPHjAOdPEHvnRxP4zo4n8Z0cT+M6OJ/GdHE4JuK
h8wXeW+YLK0dcdC4zFztj9ez9Ozmz/gEawAn4a/bT+a/7GIA0p2N9sgA8Z+32wqO
s9vvjIoP8Rn/xAAuEQACAgIBAQYGAQUBAAAAAAABAgMEABEhEgUTFDFBURAgIjAy
UkIzQFBicoH/2gAIAQMBAT8A/tCQOSckuV4zpnwdoVydB8SVJBtG39t3VFLNk9uW
zIY4jpc6KykCSQsfU+mTx006eeSN8YpkhIlgcsuU7iWEHo32u0LBZu4jJ2c7tgVr
oNMfyOWKaQ1TxzrOz0WechhsAZarmqwkT8D5jNmrKksf4NkMglQMPsXLIgjJ3yeB
lGAyM1iTzOVx1XpT7ZMqMhEnllWKujEw63l5equ+QRLYqBT5jKU7QSmCT/z53cIp
Zjh6r1n/AEU5PYWtGI00WI1oZQgKAyOPqbO0Dqu2dlnU+t+YyROtGT3GQu9GUxv+
BPBy9AHUWIiNjnKFoTRhWP1D5u0LBdhBGeTisKkaqo3I2VahZu+m5Y4BrLcJniMY
9cqdnvXl62bfHwsV1mQgjnEd6zmCUEofI4+6k4kT8DkUiyoGU/Jcm7mFm9cgU6a0
/PtlKuZWNiXknyzhRydDDfi74RK3ODkfCzaWuAW8sgnSdAyneWYFmjYEc4gLddWX
kjyOdnTGOVq7E/J2sT0KMl4irxr/ACIyICOJR5ADLNppXNeDzyakawjmHJB+o5Xm
WWNWBwkAbJy4wtzpCnI9caKWg4dOU9RkE6zIGU5dHdWI5B6nH2t2Mj1weQ+PaiFo
gwHkcZ+uGGUD8Dzklx7CrDCDs5VqrCATy5HJySNZFKsManPAxNZ+PbDFfk+l20Mq
1Er8+bH1OMqupVhsHJYpaMneRbKE8jJpxbkjC+nJxD310aHC4OAPjNGJUZTnS9OV
lcbjOVjW0GTWB1PrnUPfNj3GbHuM61zqXJHjKnqI1lmaJdrXUdR9s7PqmNe8cfUf
lmgSZSrDJOzJFO4ZNZ4S8NafPC3v3OeFvfuc8Le/c54S96yZ4W9+5wUbbcSScZX7
PjhPU3LYBr/AbH25P6b/APJxmKwqQfXLDMYIzs8sc2e7U7/jkTMyAk7Of//ZiJYE
ExYKAD4WIQRQgx6F9I96vl2iUVHgTvESyisHIQUCYgLipAIbAwUJCWYBgAULCQgH
AwUVCgkICwUWAgMBAAIeBQIXgAAKCRDgTvESyisHIcfhAQCy3bERBEaE7ma+ZMcc
bI3R+VtzBia1AeGIOpdPIkdSVwD/ZW2VdaF6RBtteO7QAJJ/L/1EcFL5u92Yp6Mp
s3/lagS4OARiAt4REgorBgEEAZdVAQUBAQdAhygPwBgijsCGn3ppFmNSplsrj2wy
mddcKq/+TOqrwk4DAQgHiH4EGBYKACYWIQRQgx6F9I96vl2iUVHgTvESyisHIQUC
YgLeEQIbDAUJCWYBgAAKCRDgTvESyisHIVpgAQD8dO6LiscEtHMSqMnoDHpTIi+6
asaUPgKcnrvHMjGWQgEAkda01EN/V+aDelMQwHjrEOjyctxS3uxiSYuBbXbkKQk=
=PQO7
-----END PGP PUBLIC KEY BLOCK-----
