-----BEGIN PGP PUBLIC KEY BLOCK-----

mQINBGPIay0BEADPWDDkUvgPhUydDN7jx2a5vkSLffyDhMyRohuTHcr1jBVkr1ik
pJRLb3o/CpMndXKkboH95lPCZaaQbZB5DZG/mRjhHXupdi6Nm88EVHdJtVvwi9NY
Lr5epnZLbSX4vdlSaYr4Jjz0/ni+tuCLJsKOrORaLD3n0s+uQt4wskcUmbDfrGVi
7F6BES+bJiSugCy8l8IDvz8Lk7KZHopyznysB344wk9yng1GHZuOI4szMy/A6Ez4
vdbKerdSGdusIgcW2wTQ2OVw77Tp4HObcuvgzKe19Aw+xAsZXQpXIB/bpDbfBzMx
ofZ+WbrFth/2hYSw8sZuwFJePCEuiiWhFzzK5TeI95O2Mm2OxVFAdfzQvxyf/oak
TCBPXvf7DlHqdsDeVq4aid7QvZ22VOxu/+Jdpz5spFoOMsFlVp/ZnxLufvXhXWpM
lPZ8nJkxIUO225ua9QE4n9vhBAzVtveg6ubcNNOWtTO8w9JQvFgIXUi4sLLnXEuE
C5bft+Lsv8Cj/EG5KScbap6D6/wPkw3TtdmyETX+DKrAEo4jfEMJAC2Q3JLdlcad
xLbkL6ivzV4KlKixDSc4eJXYWO+NWXCpyw35O6izRnWg4lgYT4hYyFbUNLI6fYHA
P069XZFgGHBeC8TKUCinKbAUAj4TPIAND7p38u4QkJ01a3QsT2x70RaO2wARAQAB
tDVGaWxpcCBEdXRlc2N1IChHaXQgc2lnbmluZykgPGZpbGlwLmR1dGVzY3VAZ21h
aWwuY29tPokCVAQTAQgAPhYhBKGmENveseVpcdKuKYZkB8X6fbULBQJjyGstAhsD
BQkAdqcABQsJCAcCBhUKCQgLAgQWAgMBAh4BAheAAAoJEIZkB8X6fbULIsIQALvv
nGowUu4ReRY9lXPZwWtHeyuFu1qGY8NkqLmNBGi5iY6VTfEsOVVrdTfxwHhxr/eJ
H4JukWiqPoYQbYJpI8UHUU3opeOqUqy0LZ7ZhtCzjDpImiqmnG+ZDcnR/sznTwKt
cOwciuUkGGRFqs27J378HF6MU2r5JHCjIdU74f/X4vmARBKMomWr8w0BNUf+JtDz
r3sQ6VGx8DKs2nHft2vZkSqrGkPu54vHEJ0Ym96/0fwVsSjz9PDv6wVHJNAyNc+4
cU1TnM1eLpDGQauKDUZPj2JV8rXTXK2BKUU7kLTHA6qofThKHDecFbWC2UbOMl+1
XKB4tNBXhgrDK6RN9/OvkYQ+ayvppmLYZUVKEtHSA8Y/A/YfVzZih1P4FwmzQ76u
4n44sREQxn9Sv6m9Bu2Ei+lBGpybonyvMBdKL4kxePG2hAvkiGM3VU56FkYI1vOH
JqdWzQZSQMFwutp3iHFKCTCluqSbEBBRJBnySIDdSU/ja8xrYVBAXexuTsziK68j
1JJpHhhKGSau/P8pOS2j8wz2J2wVpxCjQr1lkLvkVH0khlsSQwTKOfYP8KjcJ6Bl
q0P4LujNeUNpEzHQG1ep65yqibLatS/5sKEaMMFcOBSAv4eqG+1RT45q6Qiallh8
1O0rNCRGWorS9Y2JQ/OqNNXpmkOyYzklahWOOYCmuQINBGPIay0BEADUgIpeWJ5D
uDSn31/1A4B20WlGfMv8O249EiPIt3T79qtHDEff3wy0eqs/DzTdJ02qCHBp5unp
CTOmODxofWWDZRJJOYz7/fLJzBP7q8Od1OqlQyK1dGx9R8zCwZ9uNQHtHcrsrtiL
eY/Q568pQTS33SmEWLKOwr73OtIuO06MXc9aWZ/LfzQPlU6zAU0Fj1+Iz1/WFLfK
9OtwxmL7asPLKo0iYue2yN5E7kHBuktq1Ol4Oa1H/wqpbAmzDh/LtjO1904nb/ws
l9eRI/zeH1Lr3neZU8wZpfuXN1g52p/oDlm7vZP35cnxYE4iExQV6D5xeiNVIbeB
d2Dciwa/CGTKzNAUQBBUmYqUJFYI0deEZPYf/k/I4gTI40vdmyz/HOfKuyC+7oW5
WtT3RiXdPorRIp7xOl4zaUdqIRrxJjGdZ/fzspTlhn/bkFks4Zc4vZvyucwtdSkj
On7tmzleel8K8i+1d4IfNcWMQR59QZEHzt3D+XU1XbLNBpqTEImvIXfP8nzlycqN
pABPUOGRJ/hK9QfoPJoULunvHIRGY7e/lvSAeheTvTyNJztsnpk/N8sAyk5KVS2z
C8NfTU2I7a5ZpI9mGj19kcMdARothHwOa8+JNHBlYTC0h+ScGzzxhfiSoiQSHRGg
9KVZUomeAxvcFC5GvXJR02V1+B0m1HZiHwARAQABiQI7BBgBCAAmFiEEoaYQ296x
5Wlx0q4phmQHxfp9tQsFAmPIay0CGwwFCQB2pwAACgkQhmQHxfp9tQsuYA/3Wh9L
GAg6asZS54Kv/KNNsef0wkRluoM+PrDLlpXU+RyM1edUERtkPvoOVsqB/IhAy4fC
C5IWgva8JZgmRGtdx1m5hXewM3G69bfRLsF4gvu8BZotsmrdwih6FKOAMUKQIXwV
L7WOJIWLLGLVnPcYQ4BnptyCqbZeBLV9eOjALfGAolmVP/yifLOGNaEm1tgFCDAE
OeYnDwmlG5AmNDjypMaEOmwkfOoKVACUy/Yq638jFMk3gZDHJRGCwmoRQIW28FIF
Uur+CDkC5ln9r0gk+khMlxpdbCRirgP427KzSTQZsid8YkVkzI4XOstSnEFzh3cy
1uW9Bakkcz5RzMfmdoNVGLb/zIhA7BW9M1rKqyV/KQizxtc2QARXo02RhMOwz3Xo
6IHr0ai/rGUItQLgrU1u0Fat+ThX8wPYpKHTleObzo6sk7GqLzz53tVG2D1UKKOO
V5xE6771iXxxGkcEYKHIgcUPOMmteHryZc8y58hnbI19+B1e1UMKCTXpHDGFwTay
ebJF6kEZMJfTqOYNS2STJNYmob7AI0rHmnBcCFGPtszyv8Xuv3Gtvknkgvv5T3oh
WtcEq5DyfDfNFunleN3/M4ANlYwf5m8Bjui0uz4RlByJNBDNW892SLZTUETI2Z+m
LlWULLM9HhroIU7PC5Xd6DXs+qh4T4OSlHIF6Q==
=HLPR
-----END PGP PUBLIC KEY BLOCK-----